X:18939
T:Wunderschön prächtige...
R:
O:
S:source
B:Frau Nachtigall (Straßburg - 1928)
Z:<anamnese@caramail.com> -- http://anamnese.fr.st
N:p.137
M:3/4
L:1/4
Q:1/4=150
K:F
FFF | (F/G/ A/) G/ F | AAA | (A/B/ c/) B/ A | cfd | c>B A |
G/A/ B A | G2 z :| cAc | c/A/ B2 | BGB | B/G/ A2 |
:F F/C/ A/G/ | A/G/ F A/B/ | cAc | f2 z | ddd | c>B A/c/ |
c/B/ AG | F2 z :]


